austria/municipalities/70805.svg

<?xml version="1.0" encoding="UTF-8"?>
<!DOCTYPE svg PUBLIC "-//W3C//DTD SVG 1.1//EN" "http://www.w3.org/Graphics/SVG/1.1/DTD/svg11.dtd">
<svg xmlns="http://www.w3.org/2000/svg" version="1.1" width="166px" height="192px" style="shape-rendering:geometricPrecision; text-rendering:geometricPrecision; image-rendering:optimizeQuality; fill-rule:evenodd; clip-rule:evenodd" xmlns:xlink="http://www.w3.org/1999/xlink">
<g><path style="opacity:1" fill="#090908" d="M -0.5,-0.5 C 54.8333,-0.5 110.167,-0.5 165.5,-0.5C 165.5,39.1667 165.5,78.8333 165.5,118.5C 157.612,158.721 133.612,183.054 93.5,191.5C 86.1667,191.5 78.8333,191.5 71.5,191.5C 30.4674,182.802 6.46741,157.802 -0.5,116.5C -0.5,77.5 -0.5,38.5 -0.5,-0.5 Z"/></g>
<g><path style="opacity:1" fill="#44403e" d="M 3.5,3.5 C 56.1667,2.16667 108.833,2.16667 161.5,3.5C 150.909,2.89526 140.575,3.56192 130.5,5.5C 130.5,4.83333 130.167,4.5 129.5,4.5C 87.67,3.50135 45.67,3.16801 3.5,3.5 Z"/></g>
<g><path style="opacity:1" fill="#fdfdfd" d="M 3.5,3.5 C 45.67,3.16801 87.67,3.50135 129.5,4.5C 118.857,9.54865 107.857,13.7153 96.5,17C 94.2738,18.6195 92.9404,20.7862 92.5,23.5C 94.8296,29.5307 93.4963,34.364 88.5,38C 87.2161,38.6838 86.0495,38.5171 85,37.5C 84.1184,34.2105 83.4517,30.8772 83,27.5C 81.0478,25.1064 78.5478,23.6064 75.5,23C 74.6959,21.2287 73.5292,19.7287 72,18.5C 72.2068,20.7513 72.3735,23.0846 72.5,25.5C 70.0846,25.3735 67.7513,25.2068 65.5,25C 69.5397,30.8004 70.5397,37.1337 68.5,44C 63.3889,45.1105 58.7223,44.1105 54.5,41C 52.8333,40.3333 51.1667,40.3333 49.5,41C 43.6201,46.7253 37.9535,52.7253 32.5,59C 28.1591,62.1724 23.4924,64.8391 18.5,67C 19.772,68.0463 21.272,68.5463 23,68.5C 27.667,67.6659 32.167,66.3326 36.5,64.5C 33.6336,67.5211 30.3003,70.0211 26.5,72C 33.3382,74.1139 39.3382,72.6139 44.5,67.5C 43.2659,70.4073 41.2659,72.7407 38.5,74.5C 43.9706,75.7295 48.4706,74.0628 52,69.5C 51.7374,70.9506 51.9041,72.2839 52.5,73.5C 55.9013,72.5585 58.4013,70.5585 60,67.5C 64.2733,68.2533 66.6067,66.2533 67,61.5C 68.016,60.3659 68.6827,60.6992 69,62.5C 71.3873,60.6452 73.054,58.3118 74,55.5C 75.8333,57.3333 77.6667,59.1667 79.5,61C 89.9524,65.1295 98.2858,71.7961 104.5,81C 105.449,81.6172 106.282,81.4506 107,80.5C 107.49,79.2068 107.657,77.8734 107.5,76.5C 111.35,76.2993 112.35,74.4659 110.5,71C 114.638,71.2185 115.972,69.5518 114.5,66C 112.5,65.6667 110.5,65.3333 108.5,65C 111.167,64.6667 113.833,64.3333 116.5,64C 117.357,63.3109 118.023,62.4776 118.5,61.5C 110.781,62.256 103.448,60.756 96.5,57C 93.6171,54.3982 91.9504,51.2315 91.5,47.5C 94.8499,47.665 98.1832,47.4983 101.5,47C 102.112,45.6967 102.446,44.5301 102.5,43.5C 106.481,45.0978 110.148,44.5978 113.5,42C 111.846,41.3923 110.179,40.8923 108.5,40.5C 110.167,39.8333 111.833,39.1667 113.5,38.5C 116.599,38.9077 118.933,37.741 120.5,35C 116.781,34.6116 113.114,33.9449 109.5,33C 116.218,33.2693 121.551,30.7693 125.5,25.5C 121.589,25.3076 117.589,25.141 113.5,25C 118.823,23.9231 123.323,21.4231 127,17.5C 128.187,15.9556 128.52,14.2889 128,12.5C 125.341,14.2465 122.508,15.5798 119.5,16.5C 119.5,16.1667 119.5,15.8333 119.5,15.5C 124.462,13.5357 128.129,10.2024 130.5,5.5C 140.575,3.56192 150.909,2.89526 161.5,3.5C 161.5,32.1667 161.5,60.8333 161.5,89.5C 108.833,89.5 56.1667,89.5 3.5,89.5C 3.5,60.8333 3.5,32.1667 3.5,3.5 Z"/></g>
<g><path style="opacity:1" fill="#090908" d="M 129.5,4.5 C 130.167,4.5 130.5,4.83333 130.5,5.5C 128.129,10.2024 124.462,13.5357 119.5,15.5C 117.488,16.2283 115.488,17.0617 113.5,18C 115.775,18.405 117.775,17.905 119.5,16.5C 122.508,15.5798 125.341,14.2465 128,12.5C 128.52,14.2889 128.187,15.9556 127,17.5C 123.323,21.4231 118.823,23.9231 113.5,25C 117.589,25.141 121.589,25.3076 125.5,25.5C 121.551,30.7693 116.218,33.2693 109.5,33C 113.114,33.9449 116.781,34.6116 120.5,35C 118.933,37.741 116.599,38.9077 113.5,38.5C 111.143,38.3367 108.81,38.5034 106.5,39C 107.044,39.7172 107.711,40.2172 108.5,40.5C 110.179,40.8923 111.846,41.3923 113.5,42C 110.148,44.5978 106.481,45.0978 102.5,43.5C 102.446,44.5301 102.112,45.6967 101.5,47C 98.1832,47.4983 94.8499,47.665 91.5,47.5C 91.9504,51.2315 93.6171,54.3982 96.5,57C 103.448,60.756 110.781,62.256 118.5,61.5C 118.023,62.4776 117.357,63.3109 116.5,64C 113.833,64.3333 111.167,64.6667 108.5,65C 110.5,65.3333 112.5,65.6667 114.5,66C 115.972,69.5518 114.638,71.2185 110.5,71C 112.35,74.4659 111.35,76.2993 107.5,76.5C 107.657,77.8734 107.49,79.2068 107,80.5C 106.282,81.4506 105.449,81.6172 104.5,81C 98.2858,71.7961 89.9524,65.1295 79.5,61C 77.6667,59.1667 75.8333,57.3333 74,55.5C 73.054,58.3118 71.3873,60.6452 69,62.5C 68.6827,60.6992 68.016,60.3659 67,61.5C 66.6067,66.2533 64.2733,68.2533 60,67.5C 58.4013,70.5585 55.9013,72.5585 52.5,73.5C 51.9041,72.2839 51.7374,70.9506 52,69.5C 48.4706,74.0628 43.9706,75.7295 38.5,74.5C 41.2659,72.7407 43.2659,70.4073 44.5,67.5C 39.3382,72.6139 33.3382,74.1139 26.5,72C 30.3003,70.0211 33.6336,67.5211 36.5,64.5C 32.167,66.3326 27.667,67.6659 23,68.5C 21.272,68.5463 19.772,68.0463 18.5,67C 23.4924,64.8391 28.1591,62.1724 32.5,59C 37.9535,52.7253 43.6201,46.7253 49.5,41C 51.1667,40.3333 52.8333,40.3333 54.5,41C 58.7223,44.1105 63.3889,45.1105 68.5,44C 70.5397,37.1337 69.5397,30.8004 65.5,25C 67.7513,25.2068 70.0846,25.3735 72.5,25.5C 72.3735,23.0846 72.2068,20.7513 72,18.5C 73.5292,19.7287 74.6959,21.2287 75.5,23C 78.5478,23.6064 81.0478,25.1064 83,27.5C 83.4517,30.8772 84.1184,34.2105 85,37.5C 86.0495,38.5171 87.2161,38.6838 88.5,38C 93.4963,34.364 94.8296,29.5307 92.5,23.5C 92.9404,20.7862 94.2738,18.6195 96.5,17C 107.857,13.7153 118.857,9.54865 129.5,4.5 Z"/></g>
<g><path style="opacity:1" fill="#6f6b69" d="M 119.5,15.5 C 119.5,15.8333 119.5,16.1667 119.5,16.5C 117.775,17.905 115.775,18.405 113.5,18C 115.488,17.0617 117.488,16.2283 119.5,15.5 Z"/></g>
<g><path style="opacity:1" fill="#989491" d="M 113.5,38.5 C 111.833,39.1667 110.167,39.8333 108.5,40.5C 107.711,40.2172 107.044,39.7172 106.5,39C 108.81,38.5034 111.143,38.3367 113.5,38.5 Z"/></g>
<g><path style="opacity:1" fill="#8e8b89" d="M 36.5,64.5 C 37.7927,62.7041 39.2927,61.0375 41,59.5C 40.8228,62.1858 39.3228,63.8524 36.5,64.5 Z"/></g>
<g><path style="opacity:1" fill="#9e9a99" d="M 44.5,67.5 C 44.6854,65.8042 45.5187,64.4709 47,63.5C 47.2793,65.4122 46.4459,66.7456 44.5,67.5 Z"/></g>
<g><path style="opacity:1" fill="#807c7a" d="M 54.5,61.5 C 55.709,63.4346 55.5423,65.4346 54,67.5C 53.8195,65.5116 53.9862,63.5116 54.5,61.5 Z"/></g>
<g><path style="opacity:1" fill="#273a27" d="M 3.5,89.5 C 56.1667,89.5 108.833,89.5 161.5,89.5C 161.5,90.1667 161.5,90.8333 161.5,91.5C 108.833,91.5 56.1667,91.5 3.5,91.5C 3.5,90.8333 3.5,90.1667 3.5,89.5 Z"/></g>
<g><path style="opacity:1" fill="#185b2a" d="M 3.5,91.5 C 56.1667,91.5 108.833,91.5 161.5,91.5C 165.83,125.726 154.496,153.226 127.5,174C 95.4848,192.899 64.1515,191.899 33.5,171C 9.82519,149.826 -0.174811,123.326 3.5,91.5 Z"/></g>
<g><path style="opacity:1" fill="#fdfdfd" d="M -0.5,116.5 C 6.46741,157.802 30.4674,182.802 71.5,191.5C 47.5,191.5 23.5,191.5 -0.5,191.5C -0.5,166.5 -0.5,141.5 -0.5,116.5 Z"/></g>
<g><path style="opacity:1" fill="#fdfdfd" d="M 165.5,118.5 C 165.5,142.833 165.5,167.167 165.5,191.5C 141.5,191.5 117.5,191.5 93.5,191.5C 133.612,183.054 157.612,158.721 165.5,118.5 Z"/></g>
<g><path style="opacity:1" fill="#121311" d="M 79.5,108.5 C 91.3574,108.488 94.6907,113.655 89.5,124C 94.8753,123.335 99.042,125.168 102,129.5C 102.949,138.217 99.1156,141.717 90.5,140C 89.0337,139.365 87.7003,138.531 86.5,137.5C 86.1667,138.167 85.8333,138.833 85.5,139.5C 86.3284,142.479 86.9951,145.479 87.5,148.5C 84.1016,148.82 80.7683,148.487 77.5,147.5C 78.9731,144.285 79.4731,140.951 79,137.5C 75.3186,140.36 71.1519,141.193 66.5,140C 61.2994,135.25 61.2994,130.583 66.5,126C 69.3771,124.873 72.3771,124.206 75.5,124C 73.5715,120.744 73.0715,117.244 74,113.5C 75.3516,111.251 77.1849,109.584 79.5,108.5 Z"/></g>
<g><path style="opacity:1" fill="#faf9f9" d="M 78.5,110.5 C 90.4067,109.969 93.4067,114.969 87.5,125.5C 89.7308,125.887 92.0641,126.053 94.5,126C 99.7103,127.211 101.544,130.377 100,135.5C 97.4038,139.69 93.9038,140.524 89.5,138C 87.9825,136.315 86.3159,134.815 84.5,133.5C 84.1667,134.667 83.8333,135.833 83.5,137C 84.0909,140.527 84.7575,144.027 85.5,147.5C 83.396,147.799 81.396,147.466 79.5,146.5C 81.4058,142.263 81.7391,137.929 80.5,133.5C 78.0194,136.32 75.0194,138.32 71.5,139.5C 63.959,137.287 62.6257,133.12 67.5,127C 70.7363,125.276 74.0697,125.11 77.5,126.5C 76.205,123.335 75.205,120.001 74.5,116.5C 75.4316,114.235 76.7649,112.235 78.5,110.5 Z"/></g>
<g><path style="opacity:1" fill="#141513" d="M 116.5,124.5 C 127.855,122.851 132.188,127.518 129.5,138.5C 134.605,138.906 138.438,141.24 141,145.5C 141.5,153 138,156.5 130.5,156C 128.152,155.654 126.319,154.487 125,152.5C 124.535,156.611 125.035,160.611 126.5,164.5C 123.167,164.5 119.833,164.5 116.5,164.5C 117.548,160.539 118.048,156.539 118,152.5C 110.116,159.002 104.616,157.502 101.5,148C 102.946,141.768 106.946,138.601 113.5,138.5C 110.397,132.916 111.397,128.249 116.5,124.5 Z"/></g>
<g><path style="opacity:1" fill="#fafafa" d="M 118.5,125.5 C 129.904,126.478 132.237,131.644 125.5,141C 128.833,141.333 132.167,141.667 135.5,142C 139.636,144.676 140.469,148.176 138,152.5C 132,155.894 127.166,154.56 123.5,148.5C 122.306,153.113 122.639,157.613 124.5,162C 122.527,162.495 120.527,162.662 118.5,162.5C 119.369,159.22 120.036,155.887 120.5,152.5C 120.167,151.167 119.833,149.833 119.5,148.5C 116.461,153.368 112.128,155.201 106.5,154C 102.895,150.685 102.561,147.018 105.5,143C 109.099,141.986 112.765,141.153 116.5,140.5C 112.014,134.633 112.68,129.633 118.5,125.5 Z"/></g>
<g><path style="opacity:1" fill="#131512" d="M 39.5,124.5 C 51.525,123.01 55.525,127.843 51.5,139C 62.892,139.998 65.892,145.332 60.5,155C 55.4428,157.351 50.9428,156.518 47,152.5C 46.9698,156.297 47.8031,159.963 49.5,163.5C 45.8333,164.833 42.1667,164.833 38.5,163.5C 40.1605,160.23 40.4939,156.897 39.5,153.5C 34.3452,157.724 29.5119,157.39 25,152.5C 22.9927,143.167 26.826,138.667 36.5,139C 33.2088,133.169 34.2088,128.336 39.5,124.5 Z"/></g>
<g><path style="opacity:1" fill="#f9f9f9" d="M 41.5,125.5 C 51.9544,126.559 54.2878,131.559 48.5,140.5C 52.2348,141.153 55.9015,141.986 59.5,143C 61.4782,145.497 61.9782,148.331 61,151.5C 57.9738,154.864 54.4738,155.364 50.5,153C 49,151.5 47.5,150 46,148.5C 45.3523,153.204 45.519,157.871 46.5,162.5C 44.4727,162.662 42.4727,162.495 40.5,162C 42.314,157.674 42.814,153.174 42,148.5C 38.3923,154.232 33.559,155.732 27.5,153C 24.6344,148.779 25.301,145.112 29.5,142C 32.8333,141.667 36.1667,141.333 39.5,141C 33.7804,134.745 34.4471,129.578 41.5,125.5 Z"/></g>
</svg>

<svg xmlns="http://www.w3.org/2000/svg" width="166" height="192" style="shape-rendering:geometricPrecision;text-rendering:geometricPrecision;image-rendering:optimizeQuality;fill-rule:evenodd;clip-rule:evenodd"><path style="opacity:1" fill="#090908" d="M-.5-.5h166v119c-7.888 40.221-31.888 64.554-72 73h-22c-41.033-8.698-65.033-33.698-72-75V-.5z"/><path style="opacity:1" fill="#44403e" d="M3.5 3.5a3121.008 3121.008 0 0 1 158 0c-10.591-.605-20.925.062-31 2 0-.667-.333-1-1-1-41.83-.999-83.83-1.332-126-1z"/><path style="opacity:1" fill="#fdfdfd" d="M3.5 3.5c42.17-.332 84.17.001 126 1a218.535 218.535 0 0 1-33 12.5c-2.226 1.62-3.56 3.786-4 6.5 2.33 6.03.996 10.864-4 14.5-1.284.684-2.45.517-3.5-.5a79.094 79.094 0 0 1-2-10c-1.952-2.394-4.452-3.894-7.5-4.5a12.134 12.134 0 0 0-3.5-4.5c.207 2.251.374 4.585.5 7a178.821 178.821 0 0 1-7-.5c4.04 5.8 5.04 12.134 3 19-5.111 1.11-9.778.11-14-3-1.667-.667-3.333-.667-5 0a297.455 297.455 0 0 0-17 18 72.359 72.359 0 0 1-14 8c1.272 1.046 2.772 1.546 4.5 1.5a63 63 0 0 0 13.5-4c-2.866 3.021-6.2 5.521-10 7.5 6.838 2.114 12.838.614 18-4.5-1.234 2.907-3.234 5.24-6 7 5.47 1.23 9.97-.437 13.5-5-.263 1.45-.096 2.784.5 4 3.401-.942 5.901-2.942 7.5-6 4.273.753 6.607-1.247 7-6 1.016-1.134 1.683-.8 2 1 2.387-1.855 4.054-4.188 5-7l5.5 5.5c10.452 4.13 18.786 10.796 25 20 .949.617 1.782.45 2.5-.5a8.43 8.43 0 0 0 .5-4c3.85-.2 4.85-2.034 3-5.5 4.138.219 5.472-1.448 4-5l-6-1 8-1a7.253 7.253 0 0 0 2-2.5c-7.719.756-15.052-.744-22-4.5-2.883-2.602-4.55-5.769-5-9.5 3.35.165 6.683-.002 10-.5.612-1.303.946-2.47 1-3.5 3.981 1.598 7.648 1.098 11-1.5a42.584 42.584 0 0 0-5-1.5l5-2c3.099.408 5.433-.759 7-3.5a73.682 73.682 0 0 1-11-2c6.718.27 12.051-2.23 16-7.5a818.134 818.134 0 0 0-12-.5c5.323-1.077 9.823-3.577 13.5-7.5 1.187-1.544 1.52-3.211 1-5a32.99 32.99 0 0 1-8.5 4v-1c4.962-1.964 8.629-5.298 11-10 10.075-1.938 20.409-2.605 31-2v86H3.5v-86z"/><path style="opacity:1" fill="#090908" d="M129.5 4.5c.667 0 1 .333 1 1-2.371 4.702-6.038 8.036-11 10a69.385 69.385 0 0 0-6 2.5c2.275.405 4.275-.095 6-1.5a32.99 32.99 0 0 0 8.5-4c.52 1.789.187 3.456-1 5-3.677 3.923-8.177 6.423-13.5 7.5 4.089.141 8.089.308 12 .5-3.949 5.27-9.282 7.77-16 7.5a73.682 73.682 0 0 0 11 2c-1.567 2.741-3.901 3.908-7 3.5a24.939 24.939 0 0 0-7 .5c.544.717 1.211 1.217 2 1.5 1.679.392 3.346.892 5 1.5-3.352 2.598-7.019 3.098-11 1.5-.054 1.03-.388 2.197-1 3.5-3.317.498-6.65.665-10 .5.45 3.731 2.117 6.898 5 9.5 6.948 3.756 14.281 5.256 22 4.5a7.253 7.253 0 0 1-2 2.5l-8 1 6 1c1.472 3.552.138 5.219-4 5 1.85 3.466.85 5.3-3 5.5a8.43 8.43 0 0 1-.5 4c-.718.95-1.551 1.117-2.5.5-6.214-9.204-14.548-15.87-25-20L74 55.5c-.946 2.812-2.613 5.145-5 7-.317-1.8-.984-2.134-2-1-.393 4.753-2.727 6.753-7 6-1.599 3.058-4.099 5.058-7.5 6-.596-1.216-.763-2.55-.5-4-3.53 4.563-8.03 6.23-13.5 5 2.766-1.76 4.766-4.093 6-7-5.162 5.114-11.162 6.614-18 4.5 3.8-1.979 7.134-4.479 10-7.5a63 63 0 0 1-13.5 4c-1.728.046-3.228-.454-4.5-1.5a72.359 72.359 0 0 0 14-8 297.455 297.455 0 0 1 17-18c1.667-.667 3.333-.667 5 0 4.222 3.11 8.889 4.11 14 3 2.04-6.866 1.04-13.2-3-19 2.251.207 4.585.373 7 .5a178.821 178.821 0 0 0-.5-7 12.134 12.134 0 0 1 3.5 4.5c3.048.606 5.548 2.106 7.5 4.5a79.094 79.094 0 0 0 2 10c1.05 1.017 2.216 1.184 3.5.5 4.996-3.636 6.33-8.47 4-14.5.44-2.714 1.774-4.88 4-6.5a218.535 218.535 0 0 0 33-12.5z"/><path style="opacity:1" fill="#6f6b69" d="M119.5 15.5v1c-1.725 1.405-3.725 1.905-6 1.5a69.385 69.385 0 0 1 6-2.5z"/><path style="opacity:1" fill="#989491" d="m113.5 38.5-5 2c-.789-.283-1.456-.783-2-1.5a24.939 24.939 0 0 1 7-.5z"/><path style="opacity:1" fill="#8e8b89" d="M36.5 64.5a31.444 31.444 0 0 1 4.5-5c-.177 2.686-1.677 4.352-4.5 5z"/><path style="opacity:1" fill="#9e9a99" d="M44.5 67.5c.185-1.696 1.019-3.03 2.5-4 .28 1.912-.554 3.246-2.5 4z"/><path style="opacity:1" fill="#807c7a" d="M54.5 61.5c1.209 1.935 1.042 3.935-.5 6a17.64 17.64 0 0 1 .5-6z"/><path style="opacity:1" fill="#273a27" d="M3.5 89.5h158v2H3.5v-2z"/><path style="opacity:1" fill="#185b2a" d="M3.5 91.5h158c4.33 34.226-7.004 61.726-34 82.5-32.015 18.899-63.349 17.899-94-3-23.675-21.174-33.675-47.674-30-79.5z"/><path style="opacity:1" fill="#fdfdfd" d="M-.5 116.5c6.967 41.302 30.967 66.302 72 75h-72v-75zM165.5 118.5v73h-72c40.112-8.446 64.112-32.779 72-73z"/><path style="opacity:1" fill="#121311" d="M79.5 108.5c11.857-.012 15.19 5.155 10 15.5 5.375-.665 9.542 1.168 12.5 5.5.949 8.717-2.884 12.217-11.5 10.5a15.645 15.645 0 0 1-4-2.5l-1 2a87.265 87.265 0 0 1 2 9 25.878 25.878 0 0 1-10-1c1.473-3.215 1.973-6.549 1.5-10-3.681 2.86-7.848 3.693-12.5 2.5-5.2-4.75-5.2-9.417 0-14a29.928 29.928 0 0 1 9-2c-1.928-3.256-2.428-6.756-1.5-10.5 1.352-2.249 3.185-3.916 5.5-5z"/><path style="opacity:1" fill="#faf9f9" d="M78.5 110.5c11.907-.531 14.907 4.469 9 15 2.23.387 4.564.553 7 .5 5.21 1.211 7.044 4.377 5.5 9.5-2.596 4.19-6.096 5.024-10.5 2.5a31.867 31.867 0 0 0-5-4.5l-1 3.5c.59 3.527 1.257 7.027 2 10.5a9.86 9.86 0 0 1-6-1c1.906-4.237 2.24-8.571 1-13-2.48 2.82-5.48 4.82-9 6-7.541-2.213-8.874-6.38-4-12.5 3.236-1.724 6.57-1.89 10-.5a55.03 55.03 0 0 1-3-10 18.188 18.188 0 0 1 4-6z"/><path style="opacity:1" fill="#141513" d="M116.5 124.5c11.355-1.649 15.688 3.018 13 14 5.105.406 8.938 2.74 11.5 7 .5 7.5-3 11-10.5 10.5-2.348-.346-4.181-1.513-5.5-3.5-.465 4.111.035 8.111 1.5 12h-10a44.636 44.636 0 0 0 1.5-12c-7.884 6.502-13.384 5.002-16.5-4.5 1.446-6.232 5.446-9.399 12-9.5-3.103-5.584-2.103-10.251 3-14z"/><path style="opacity:1" fill="#fafafa" d="M118.5 125.5c11.404.978 13.737 6.144 7 15.5l10 1c4.136 2.676 4.969 6.176 2.5 10.5-6 3.394-10.834 2.06-14.5-4-1.194 4.613-.861 9.113 1 13.5a18.453 18.453 0 0 1-6 .5 82.989 82.989 0 0 0 2-10l-1-4c-3.039 4.868-7.372 6.701-13 5.5-3.605-3.315-3.939-6.982-1-11a111.061 111.061 0 0 1 11-2.5c-4.486-5.867-3.82-10.867 2-15z"/><path style="opacity:1" fill="#131512" d="M39.5 124.5c12.025-1.49 16.025 3.343 12 14.5 11.392.998 14.392 6.332 9 16-5.057 2.351-9.557 1.518-13.5-2.5-.03 3.797.803 7.463 2.5 11-3.667 1.333-7.333 1.333-11 0 1.66-3.27 1.994-6.603 1-10-5.155 4.224-9.988 3.89-14.5-1-2.007-9.333 1.826-13.833 11.5-13.5-3.291-5.831-2.291-10.664 3-14.5z"/><path style="opacity:1" fill="#f9f9f9" d="M41.5 125.5c10.454 1.059 12.788 6.059 7 15 3.735.653 7.401 1.486 11 2.5 1.978 2.497 2.478 5.331 1.5 8.5-3.026 3.364-6.526 3.864-10.5 1.5l-4.5-4.5a40.43 40.43 0 0 0 .5 14 18.452 18.452 0 0 1-6-.5c1.814-4.326 2.314-8.826 1.5-13.5-3.608 5.732-8.441 7.232-14.5 4.5-2.866-4.221-2.199-7.888 2-11l10-1c-5.72-6.255-5.053-11.422 2-15.5z"/></svg>
